packages/ui-solid/icons/questionmark_20.svg

<svg width="20" height="20" viewBox="0 0 20 20" fill="none" xmlns="http://www.w3.org/2000/svg">
<path d="M10.0605 18.5815C8.88737 18.5815 7.78337 18.3574 6.74854 17.9092C5.7137 17.4665 4.80062 16.8494 4.00928 16.0581C3.22347 15.2668 2.60645 14.3537 2.1582 13.3188C1.70996 12.284 1.48584 11.18 1.48584 10.0068C1.48584 8.83366 1.70996 7.72965 2.1582 6.69482C2.60645 5.65999 3.22347 4.74967 4.00928 3.96387C4.80062 3.17253 5.71094 2.55273 6.74023 2.10449C7.77506 1.65625 8.87907 1.43213 10.0522 1.43213C11.231 1.43213 12.3377 1.65625 13.3726 2.10449C14.4074 2.55273 15.3205 3.17253 16.1118 3.96387C16.9032 4.74967 17.5229 5.65999 17.9712 6.69482C18.4194 7.72965 18.6436 8.83366 18.6436 10.0068C18.6436 11.18 18.4194 12.284 17.9712 13.3188C17.5229 14.3537 16.9032 15.2668 16.1118 16.0581C15.3205 16.8494 14.4074 17.4665 13.3726 17.9092C12.3377 18.3574 11.2337 18.5815 10.0605 18.5815ZM10.0605 16.8882C11.0179 16.8882 11.9116 16.7111 12.7417 16.3569C13.5718 16.0028 14.3022 15.5103 14.9331 14.8794C15.564 14.2485 16.0565 13.5181 16.4106 12.688C16.7648 11.8579 16.9419 10.9642 16.9419 10.0068C16.9419 9.05501 16.7648 8.16406 16.4106 7.33398C16.0565 6.49837 15.564 5.76514 14.9331 5.13428C14.3022 4.50342 13.569 4.01091 12.7334 3.65674C11.9033 3.30257 11.0096 3.12549 10.0522 3.12549C9.10042 3.12549 8.20671 3.30257 7.37109 3.65674C6.54102 4.01091 5.81331 4.50342 5.18799 5.13428C4.56266 5.76514 4.07292 6.49837 3.71875 7.33398C3.36458 8.16406 3.1875 9.05501 3.1875 10.0068C3.1875 10.9642 3.36458 11.8579 3.71875 12.688C4.07292 13.5181 4.56266 14.2485 5.18799 14.8794C5.81885 15.5103 6.54932 16.0028 7.37939 16.3569C8.21501 16.7111 9.10872 16.8882 10.0605 16.8882ZM9.87793 11.6587C9.35221 11.6587 9.08936 11.4235 9.08936 10.9531C9.08936 10.9365 9.08936 10.9199 9.08936 10.9033C9.08936 10.8867 9.08936 10.8729 9.08936 10.8618C9.08936 10.48 9.18343 10.1701 9.37158 9.93213C9.56527 9.69417 9.81152 9.47282 10.1104 9.26807C10.4645 9.02458 10.7274 8.81706 10.8989 8.64551C11.076 8.47396 11.1646 8.25814 11.1646 7.99805C11.1646 7.71582 11.0594 7.48617 10.8491 7.30908C10.6444 7.12646 10.3732 7.03516 10.0356 7.03516C9.86963 7.03516 9.71468 7.06283 9.5708 7.11816C9.43245 7.1735 9.30241 7.25374 9.18066 7.35889C9.06445 7.4585 8.95931 7.58301 8.86523 7.73242L8.73242 7.90674C8.65495 8.01188 8.56087 8.09489 8.4502 8.15576C8.34505 8.21663 8.21777 8.24707 8.06836 8.24707C7.89681 8.24707 7.74463 8.18896 7.61182 8.07275C7.479 7.95654 7.4126 7.79883 7.4126 7.59961C7.4126 7.52214 7.41813 7.4502 7.4292 7.38379C7.4458 7.31185 7.46794 7.23991 7.49561 7.16797C7.62288 6.7806 7.91618 6.4458 8.37549 6.16357C8.84033 5.88135 9.42969 5.74023 10.1436 5.74023C10.6305 5.74023 11.0788 5.82601 11.4883 5.99756C11.9033 6.16911 12.2354 6.41536 12.4844 6.73633C12.7334 7.05729 12.8579 7.44743 12.8579 7.90674C12.8579 8.39372 12.7334 8.77832 12.4844 9.06055C12.2409 9.34277 11.9172 9.61947 11.5132 9.89062C11.2365 10.0677 11.0262 10.2365 10.8823 10.397C10.7384 10.5575 10.661 10.7456 10.6499 10.9614C10.6499 10.9725 10.6499 10.9891 10.6499 11.0112C10.6499 11.0278 10.6471 11.0444 10.6416 11.061C10.6305 11.2271 10.5558 11.3682 10.4175 11.4844C10.2847 11.6006 10.1048 11.6587 9.87793 11.6587ZM9.86133 14.207C9.5957 14.207 9.36605 14.1213 9.17236 13.9497C8.98421 13.7726 8.89014 13.554 8.89014 13.2939C8.89014 13.0339 8.98421 12.818 9.17236 12.6465C9.36051 12.4694 9.59017 12.3809 9.86133 12.3809C10.1325 12.3809 10.3621 12.4666 10.5503 12.6382C10.7384 12.8097 10.8325 13.0283 10.8325 13.2939C10.8325 13.5596 10.7384 13.7782 10.5503 13.9497C10.3621 14.1213 10.1325 14.207 9.86133 14.207Z" fill="#007AFF"/>
</svg>

<svg xmlns="http://www.w3.org/2000/svg" width="20" height="20" fill="none"><path fill="currentColor" d="M10.06 18.582a8.2 8.2 0 0 1-3.311-.673 8.7 8.7 0 0 1-2.74-1.85 8.8 8.8 0 0 1-1.85-2.74 8.2 8.2 0 0 1-.673-3.312q0-1.76.672-3.312a8.8 8.8 0 0 1 4.582-4.59 8.2 8.2 0 0 1 3.312-.673q1.769 0 3.32.672a8.8 8.8 0 0 1 2.74 1.86 8.7 8.7 0 0 1 1.86 2.73 8.2 8.2 0 0 1 .672 3.313 8.2 8.2 0 0 1-.673 3.312 8.76 8.76 0 0 1-4.598 4.59 8.2 8.2 0 0 1-3.312.672m0-1.694a6.8 6.8 0 0 0 2.682-.531 6.9 6.9 0 0 0 2.191-1.478 6.9 6.9 0 0 0 1.478-2.191 6.8 6.8 0 0 0 .53-2.681q0-1.428-.53-2.673a6.87 6.87 0 0 0-3.678-3.677 6.8 6.8 0 0 0-2.68-.532q-1.429 0-2.682.532a6.8 6.8 0 0 0-2.183 1.477 6.9 6.9 0 0 0-1.47 2.2 6.7 6.7 0 0 0-.53 2.673q0 1.435.53 2.681.533 1.245 1.47 2.191a6.8 6.8 0 0 0 4.873 2.009m-.182-5.23q-.789 0-.789-.705v-.091q0-.573.283-.93.29-.357.738-.664.531-.364.789-.622a.86.86 0 0 0 .266-.648.86.86 0 0 0-.316-.689q-.307-.274-.813-.274-.249 0-.465.083a1.4 1.4 0 0 0-.39.24q-.175.15-.316.374l-.133.175a.9.9 0 0 1-.282.249.75.75 0 0 1-.382.091.67.67 0 0 1-.456-.174.6.6 0 0 1-.2-.473q0-.117.017-.216.025-.108.067-.216.19-.58.88-1.004.697-.424 1.768-.424.73 0 1.344.258.622.256.996.738.374.481.374 1.17 0 .731-.374 1.155a4.8 4.8 0 0 1-.97.83 3 3 0 0 0-.632.506.9.9 0 0 0-.232.564v.05a.2.2 0 0 1-.008.05.6.6 0 0 1-.224.423q-.2.175-.54.175m-.017 2.549q-.398 0-.689-.257a.87.87 0 0 1-.282-.656q0-.39.282-.648a.97.97 0 0 1 .69-.265q.405 0 .688.257.282.258.282.656a.85.85 0 0 1-.282.656 1 1 0 0 1-.689.257"/></svg>
